X:4
T:Salt Beef and Dumplings
C:Suth.p2no4
S:Sutherland, 'Music for the Bagpipe'
Z:Transcribed by Ross Anderson, www.ross-anderson.com 
M:C
L:1/8
R:Reel
K:G
G2G2 GABc|dBge dcAG|c2ce dBAG|FGAB A3B|cBcd efgd|
ecAG GFED|GBAc BdAc|B2G2G2::dBGB d3e|dBge dBAG|
cBcd efge|f2d2d2cB|cBcd efge ecAG|GFED|GBAc BdAc|B2G2G2:|

